X:1
T:Title
%%score { 1 | ( 2 3 ) }
L:1/8
Q:1/4=100
M:4/4
K:A
V:1 treble nm="Grand Piano"
V:2 bass 
V:3 bass 
V:1
 [CA]2 [CG]2 [CG]2 .[F,DF]2 | [A,CE]2 A2 d2 c2 | B2 A2 G2 A2 | [EGB]8 | %4
w: Danile~Protheroe * * *||||
 [EGc]2 [CFA]2 [DFB]2 [B,EG]2 | [CEA]2 [A,E]2 [A,DF]2 [A,EA]2 | [DFB]4 [B,EG]4 |[M:8/4] [CEA]8 z8 | %8
w: ||||
[M:4/4] [DFA]8 | [CEA]8 |] %10
w: ||
V:2
 [A,,E,]2 [A,,E,]2 [A,,E,]2 z G, | A,,2[K:treble] [A,CE]2 [G,B,E]2 [A,CE]2 | %2
 [DEG]2 [CE]2[K:bass] [B,DE]2 [A,CE]2 | E,8 | C,2 F,2 B,,2 E,2 | A,,2 C,2 D,2 C,2 | B,,4 E,4 | %7
[M:8/4] A,,8 z8 |[M:4/4] D,8 | A,,8 |] %10
V:3
 z4 z2 A,,2 | x2[K:treble] x6 | x4[K:bass] x4 | x8 | x8 | x8 | x8 |[M:8/4] x16 |[M:4/4] x8 | x8 |] %10

